X:1
T:Three Dishes and Six Questions
M:4/4
L:1/8
K:F
 C| FF DC c/2 c3/2 d3/2 d/2| cA GF c3 C| FF DC cc d d/2d/2| cA GF c3|\
 c| ff fd cA F3/2 G/2| A3/2 G/2 FD C3 F| FF D C/2C/2 cc d3/2 d/2| cA G A/2G/2 F3||\


